X:1
T: The Duke of Athole
P:as in Kerr's
R:Strathspey
Q: 128
K:Am
M:4/4
L:1/16
|:E2|A3B A3E AAA2 A3B|G3D G3B dcBA G3B|A3B A3E AAA2 A3B|G3D B,3D E4 A,2E2|
A3B A3E AAA2 A3B|G3D G3B dcBA G3B|A3B A3E AAA2 A3B|G3D B,3D E4 A,2e2|
a3e a3e AAA2 a4|g3d e3g dcBA G3e|a3e a3e AAA2 a4|g3d g3B e4 A3e|
a3e a3e AAA2 a4|g3d e3g dcBA G3B|A3E c3A c3d e3a|G3E G3B, E4 A,2:|
